Website/assets/images/arrow.svg

<svg height="25" viewBox="0 0 72 25" width="72" xmlns="http://www.w3.org/2000/svg"><path d="m55.4633885 14.168894.00175-.00175c.00175-.002625.0035-.00525.00525-.00875.1505015-.1706249.2607525-.3762498.3491284-.5932497.0280002-.0665.0463754-.1295.0665006-.196875.0507505-.1671249.0822508-.3403748.0927509-.5214997.00525-.0665.0157501-.1295.0140001-.1977499 0-.035.0087501-.0665.0072315-.100625-.0124815-.2091249-.0544819-.4112498-.1192325-.6011247-.0052501-.020125-.0192502-.035875-.0262503-.056-.0770007-.2091249-.1872518-.3946248-.317628-.5643747-.0183752-.023625-.0245003-.055125-.0437504-.07875l-9.022211-10.62774517c-.6903816-.81374964-1.8235174-.82949963-2.5322742-.03237499-.7070067.79624964-.7201318 2.10174905-.0280002 2.91724868l4.8632963 5.7303724c-7.1059427-.94149958-14.0911343.55387475-14.4210124.62737471-21.5654556 3.90862327-36.82647601 23.82361417-34.02032427 44.39397987.13912633 1.0184995.89950858 1.7429992 1.76664184 1.7429992.09275088 0 .18550177-.007875.28000267-.023625.97650931-.1776249 1.64326566-1.2328744 1.49101421-2.3589989-2.49989883-18.3224917 11.42410885-36.1217336 31.09517135-39.688232.0901259-.021 7.3071947-1.5697493 14.1025094-.5022498l-7.5049465 4.456373c-.8793834.5232498-1.2232617 1.7674992-.7708824 2.7798737.4515044 1.0141246 1.5295146 1.4069994 2.411523.8898746l11.8301128-7.0244968c.1601265-.0971249.3036279-.2187499.4296291-.3596248z" fill="#0019ff" transform="matrix(.74314483 .66913061 -.66913061 .74314483 36.927471 -23.543352)"/></svg>

<svg xmlns="http://www.w3.org/2000/svg" width="72" height="25" viewBox="0 0 72 25">
  <path fill="#0019FF" d="M55.4633885,14.168894 L55.4651385,14.167144 C55.4668885,14.164519 55.4686385,14.161894 55.4703885,14.158394 C55.62089,13.9877691 55.731141,13.7821442 55.8195169,13.5651443 C55.8475171,13.4986443 55.8658923,13.4356443 55.8860175,13.3682693 C55.936768,13.2011444 55.9682683,13.0278945 55.9787684,12.8467696 C55.9840184,12.7802696 55.9945185,12.7172696 55.9927685,12.6490197 C55.9927685,12.6140197 56.0015186,12.5825197 56,12.5483947 C55.9875185,12.3392698 55.9455181,12.1371449 55.8807675,11.94727 C55.8755174,11.927145 55.8615173,11.911395 55.8545172,11.89127 C55.7775165,11.6821451 55.6672654,11.4966452 55.5368892,11.3268953 C55.518514,11.3032703 55.5123889,11.2717703 55.4931388,11.2481453 L46.4709278,0.620400125 C45.7805462,-0.193349506 44.6474104,-0.209099498 43.9386536,0.58802514 C43.2316469,1.38427478 43.2185218,2.68977419 43.9106534,3.50527382 L48.7739497,9.23564622 C41.668007,8.29414664 34.6828154,9.78952097 34.3529373,9.86302093 C12.7874817,13.7716442 -2.47353871,33.6866351 0.332613033,54.2570008 C0.471739359,55.2755003 1.23212161,56 2.09925487,56 C2.19200575,56 2.28475664,55.992125 2.37925754,55.976375 C3.35576685,55.7987501 4.0225232,54.7435006 3.87027175,53.6173761 C1.37037292,35.2948844 15.2943806,17.4956425 34.9654431,13.9291441 C35.055569,13.9081441 42.2726378,12.3593948 49.0679525,13.4268943 L41.563006,17.8832673 C40.6836226,18.4065171 40.3397443,19.6507665 40.7921236,20.663141 C41.243628,21.6772656 42.3216382,22.0701404 43.2036466,21.5530156 L55.0337594,14.5285188 C55.1938859,14.4313939 55.3373873,14.3097689 55.4633885,14.168894 Z" transform="rotate(42 49.13 36.328)"/>
</svg>
